picto/stands-o-it-large-framed.svg

<svg class="color-immutable" width="30" height="30" viewBox="0 0 30 30" fill="none" xmlns="http://www.w3.org/2000/svg"><path d="M30 0H0V30H30V0Z" fill="#2D327D"/><path d="M25.5 3C26.325 3 27 3.675 27 4.5V25.5C27 26.325 26.325 27 25.5 27H4.5C3.675 27 3 26.325 3 25.5V4.5C3 3.675 3.675 3 4.5 3H25.5ZM25.5 2.625H4.5C3.46613 2.625 2.625 3.46613 2.625 4.5V25.5C2.625 26.5339 3.46613 27.375 4.5 27.375H25.5C26.5339 27.375 27.375 26.5339 27.375 25.5V4.5C27.375 3.46613 26.5339 2.625 25.5 2.625Z" fill="white"/><path d="M15.1153 10.1849C16.9116 10.1849 18.4191 10.7755 19.6373 11.9568C20.9784 13.2612 21.6491 15.0268 21.6491 17.254C21.6491 19.1735 21.1415 20.764 20.1264 22.0251C18.8835 23.557 17.1855 24.323 15.0322 24.323C12.8296 24.323 11.1009 23.5386 9.84581 21.9697C8.85521 20.7271 8.35999 19.1613 8.35999 17.2724C8.35999 15.0331 9.00281 13.2889 10.2888 12.0398C11.5562 10.8032 13.1649 10.1849 15.1153 10.1849ZM14.9677 12.6397C13.8848 12.6397 13.0113 13.0519 12.3468 13.8763C11.67 14.7068 11.3317 15.8266 11.3317 17.2355C11.3317 18.6936 11.664 19.8287 12.3284 20.6408C12.6422 21.0284 13.039 21.3299 13.5189 21.5452C13.9987 21.7606 14.5093 21.8683 15.0507 21.8683C16.1273 21.8683 16.9763 21.493 17.5978 20.7424C18.3177 19.8811 18.6775 18.7091 18.6775 17.2263C18.6775 15.8236 18.3483 14.7069 17.6901 13.8763C17.0379 13.0519 16.1304 12.6397 14.9677 12.6397Z" fill="white"/><path d="M8.21332 7.3812C8.1969 7.614 8.11897 7.8129 7.97954 7.97798C7.79699 8.19435 7.53862 8.3025 7.20435 8.3025C6.84855 8.3025 6.57165 8.17688 6.3738 7.9257C6.2046 7.71143 6.12 7.44375 6.12 7.12283C6.12 6.78653 6.2205 6.50603 6.4215 6.28148C6.6225 6.05798 6.88957 5.94615 7.22287 5.94615C7.5336 5.94615 7.7838 6.04868 7.97347 6.2538C8.10885 6.3984 8.1837 6.56498 8.19802 6.75368H7.71352C7.6869 6.62655 7.62997 6.52838 7.54282 6.45915C7.45567 6.38993 7.34542 6.35535 7.21215 6.35535C6.99885 6.35535 6.83939 6.44505 6.73379 6.62453C6.65482 6.76088 6.61537 6.92805 6.61537 7.12598C6.61537 7.329 6.65692 7.4982 6.73994 7.63358C6.84554 7.8069 7.00192 7.89353 7.20907 7.89353C7.35675 7.89353 7.47442 7.84995 7.5621 7.7628C7.64977 7.67565 7.70384 7.54853 7.72439 7.38135H8.21332V7.3812Z" fill="white"/><path d="M9.30846 6.5229C9.55251 6.5229 9.75193 6.6039 9.90681 6.7659C10.0596 6.92588 10.136 7.13918 10.136 7.40573C10.136 7.68158 10.0545 7.90148 9.89143 8.06558C9.73865 8.21835 9.53976 8.29478 9.29466 8.29478C9.03321 8.29478 8.82501 8.20965 8.67021 8.03948C8.52253 7.87748 8.44873 7.66725 8.44873 7.40888C8.44873 7.15455 8.52051 6.94793 8.66406 6.789C8.82298 6.61163 9.03778 6.5229 9.30846 6.5229ZM9.28543 6.87053C9.16753 6.87053 9.07371 6.91823 9.00396 7.01355C8.93323 7.10993 8.89783 7.2417 8.89783 7.40888C8.89783 7.5822 8.93271 7.71495 9.00246 7.80728C9.07423 7.90058 9.17218 7.94723 9.29623 7.94723C9.41211 7.94723 9.50391 7.9047 9.57156 7.81958C9.64843 7.72523 9.68691 7.58835 9.68691 7.40888C9.68691 7.24073 9.65308 7.11 9.58536 7.0167C9.51463 6.91928 9.41466 6.87053 9.28543 6.87053Z" fill="white"/><path d="M11.474 6.54143V6.97366C11.4022 6.96031 11.3443 6.95363 11.3002 6.95363C11.1341 6.95363 11.0121 7.02338 10.9342 7.16281C10.8901 7.24073 10.868 7.37093 10.868 7.55348V8.24873H10.422V6.56911H10.8465V6.87518C10.9675 6.64756 11.1433 6.53371 11.374 6.53371C11.4028 6.53371 11.4361 6.53626 11.474 6.54143Z" fill="white"/><path d="M13.0721 7.05975H12.6538C12.6456 7.0023 12.6297 6.95873 12.6061 6.92903C12.5599 6.86955 12.4743 6.83985 12.3492 6.83985C12.2702 6.83985 12.2092 6.85418 12.1662 6.88291C12.1231 6.91163 12.1016 6.95213 12.1016 7.0044C12.1016 7.05975 12.1255 7.10025 12.1732 7.1259C12.2209 7.15155 12.3298 7.18178 12.5 7.21665C12.7164 7.26075 12.8722 7.31558 12.9676 7.3812C13.0804 7.45808 13.1368 7.57501 13.1368 7.7319C13.1368 7.91138 13.067 8.05028 12.9276 8.14875C12.7902 8.24618 12.6082 8.29485 12.3816 8.29485C12.1006 8.29485 11.8945 8.22563 11.7633 8.08718C11.6751 7.99283 11.6259 7.86413 11.6156 7.70115H12.0432C12.0514 7.77705 12.0709 7.83443 12.1016 7.87343C12.1591 7.94318 12.2539 7.97805 12.3862 7.97805C12.4784 7.97805 12.5518 7.9593 12.6061 7.92188C12.6605 7.88445 12.6877 7.83398 12.6877 7.77038C12.6877 7.71293 12.6643 7.67018 12.6177 7.64198C12.571 7.61378 12.4723 7.58228 12.3216 7.54741C12.176 7.51358 12.073 7.48718 12.0124 7.4682C11.9519 7.44923 11.8976 7.42643 11.8494 7.39973C11.7868 7.3638 11.7382 7.31363 11.7033 7.24898C11.6684 7.18433 11.651 7.11263 11.651 7.03365C11.651 6.85935 11.7233 6.72653 11.8679 6.63525C11.9858 6.5604 12.1499 6.52298 12.3601 6.52298C12.6379 6.52298 12.8374 6.5937 12.9584 6.73523C13.024 6.8121 13.0618 6.92025 13.0721 7.05975Z" fill="white"/><path d="M13.852 6V6.40147H13.406V6H13.852ZM13.852 6.57217V8.24873H13.406V6.57217H13.852Z" fill="white"/><path d="M15.7269 8.24865H15.2716C15.2521 8.18303 15.2424 8.12715 15.2424 8.08103C15.1029 8.22353 14.923 8.29485 14.7025 8.29485C14.5302 8.29485 14.3959 8.25488 14.2995 8.17485C14.1888 8.0826 14.1334 7.9539 14.1334 7.78883C14.1334 7.5786 14.2283 7.43303 14.418 7.35203C14.4948 7.31918 14.6364 7.28895 14.8425 7.26128C15.0198 7.23773 15.1303 7.21485 15.1739 7.1928C15.2175 7.17075 15.2392 7.12643 15.2392 7.05975C15.2392 6.91313 15.1418 6.83978 14.947 6.83978C14.8434 6.83978 14.7678 6.85823 14.7201 6.89513C14.6724 6.93203 14.6409 6.99615 14.6256 7.08735H14.2041C14.2175 6.90075 14.2877 6.75998 14.4149 6.66518C14.5421 6.57038 14.723 6.5229 14.9578 6.5229C15.2172 6.5229 15.4089 6.5757 15.533 6.6813C15.5904 6.7305 15.6286 6.7833 15.6476 6.8397C15.6666 6.8961 15.676 6.98528 15.676 7.1073C15.676 7.13295 15.6744 7.24575 15.6714 7.4457C15.6693 7.64768 15.6683 7.76355 15.6683 7.79333C15.6683 7.91535 15.6719 8.00483 15.6791 8.06175C15.6863 8.11868 15.7023 8.181 15.7269 8.24865ZM15.2362 7.43813C15.1788 7.47405 15.0742 7.50218 14.9225 7.52273C14.8158 7.53915 14.739 7.56015 14.6918 7.5858C14.6251 7.62173 14.5918 7.6827 14.5918 7.7688C14.5918 7.83855 14.6139 7.89285 14.658 7.93185C14.7021 7.97085 14.7636 7.99028 14.8425 7.99028C14.9738 7.99028 15.0799 7.94415 15.1609 7.85183C15.1896 7.82003 15.2094 7.78695 15.2202 7.7526C15.231 7.71825 15.2363 7.67288 15.2363 7.61648V7.43813H15.2362Z" fill="white"/></svg>

<svg class="color-immutable" width="30" height="30" viewBox="0 0 30 30" fill="none" xmlns="http://www.w3.org/2000/svg"><g clip-path="url(#a)"><path d="M30 0H0v30h30V0Z" fill="#2D327D"/><path d="M25.5 3c.825 0 1.5.675 1.5 1.5v21c0 .825-.675 1.5-1.5 1.5h-21c-.825 0-1.5-.675-1.5-1.5v-21C3 3.675 3.675 3 4.5 3h21Zm0-.375h-21A1.877 1.877 0 0 0 2.625 4.5v21c0 1.034.841 1.875 1.875 1.875h21a1.877 1.877 0 0 0 1.875-1.875v-21A1.877 1.877 0 0 0 25.5 2.625Z" fill="#fff"/><path d="M15.115 10.185c1.797 0 3.304.59 4.522 1.772 1.341 1.304 2.012 3.07 2.012 5.297 0 1.92-.508 3.51-1.523 4.771-1.242 1.532-2.94 2.298-5.094 2.298-2.202 0-3.931-.784-5.186-2.353-.99-1.243-1.486-2.809-1.486-4.698 0-2.239.643-3.983 1.929-5.232 1.267-1.237 2.876-1.855 4.826-1.855Zm-.147 2.455c-1.083 0-1.957.412-2.621 1.236-.677.83-1.015 1.95-1.015 3.36 0 1.458.332 2.593.996 3.405.314.387.711.689 1.19.904.48.216.991.323 1.533.323 1.076 0 1.925-.375 2.547-1.126.72-.86 1.08-2.033 1.08-3.516 0-1.402-.33-2.52-.988-3.35-.652-.824-1.56-1.236-2.722-1.236ZM8.213 7.381a1.01 1.01 0 0 1-.233.597c-.183.216-.441.325-.776.325-.355 0-.632-.126-.83-.377-.17-.215-.254-.482-.254-.803 0-.336.1-.617.301-.842.201-.223.469-.335.802-.335.31 0 .56.103.75.308.136.144.21.311.225.5h-.484a.489.489 0 0 0-.171-.295.515.515 0 0 0-.33-.104.52.52 0 0 0-.48.27.986.986 0 0 0-.118.501c0 .203.042.372.125.508.106.173.262.26.47.26a.479.479 0 0 0 .352-.131.628.628 0 0 0 .162-.382h.49ZM9.308 6.523c.245 0 .444.08.599.243.153.16.229.373.229.64 0 .276-.081.495-.245.66a.807.807 0 0 1-.596.229c-.262 0-.47-.085-.625-.256-.147-.162-.221-.372-.221-.63 0-.254.072-.461.215-.62.159-.177.374-.266.644-.266Zm-.023.348a.331.331 0 0 0-.281.143.656.656 0 0 0-.106.395c0 .173.035.306.104.398a.35.35 0 0 0 .294.14.333.333 0 0 0 .276-.127c.076-.095.115-.232.115-.411 0-.168-.034-.299-.102-.392a.349.349 0 0 0-.3-.146ZM11.474 6.541v.433a.997.997 0 0 0-.174-.02.39.39 0 0 0-.366.209c-.044.078-.066.208-.066.39v.696h-.446v-1.68h.425v.306c.12-.227.296-.341.527-.341a.75.75 0 0 1 .1.007ZM13.072 7.06h-.418a.27.27 0 0 0-.048-.131c-.046-.06-.132-.09-.257-.09a.328.328 0 0 0-.183.044.138.138 0 0 0-.064.121c0 .056.024.096.071.122.048.026.157.056.327.09.216.045.372.1.468.165.112.077.169.194.169.35a.48.48 0 0 1-.21.418c-.137.097-.319.146-.545.146-.281 0-.487-.07-.619-.208a.601.601 0 0 1-.147-.386h.427a.335.335 0 0 0 .059.172c.057.07.152.105.284.105a.382.382 0 0 0 .22-.056.175.175 0 0 0 .082-.152.14.14 0 0 0-.07-.128 1.203 1.203 0 0 0-.296-.095 4.857 4.857 0 0 1-.31-.079.877.877 0 0 1-.163-.068.376.376 0 0 1-.146-.151.446.446 0 0 1-.052-.215c0-.175.072-.307.217-.399.118-.075.282-.112.492-.112.278 0 .477.07.598.212a.55.55 0 0 1 .114.325ZM13.852 6v.401h-.446V6h.446Zm0 .572V8.25h-.446V6.572h.446ZM15.727 8.249h-.455a.605.605 0 0 1-.03-.168.722.722 0 0 1-.54.214c-.172 0-.306-.04-.402-.12a.475.475 0 0 1-.167-.386c0-.21.095-.356.285-.437.077-.033.218-.063.425-.09.177-.024.287-.047.33-.07.044-.021.066-.066.066-.132 0-.147-.097-.22-.292-.22-.104 0-.18.018-.227.055-.048.037-.08.101-.094.192h-.422a.545.545 0 0 1 .21-.422c.128-.095.309-.142.544-.142.26 0 .45.053.575.158.057.05.096.102.115.159a.911.911 0 0 1 .028.267l-.005.339-.003.347c0 .122.004.212.011.269.007.057.023.119.048.187Zm-.49-.81a.865.865 0 0 1-.315.084.757.757 0 0 0-.23.063c-.067.036-.1.097-.1.183 0 .07.022.124.066.163a.27.27 0 0 0 .184.058.403.403 0 0 0 .319-.138.27.27 0 0 0 .06-.1.467.467 0 0 0 .015-.136v-.178Z" fill="#fff"/></g><defs><clipPath id="a"><path fill="#fff" d="M0 0h30v30H0z"/></clipPath></defs></svg>
